X: 12
T: the Boys of Ballysodare
R: reel
Z: 2012 John Chambers <jc@trillian.mit.edu>
B: "100 Essential Irish Session Tunes" 1995 Dave Mallinson, ed.
M: 4/4
L: 1/8
K: G
B |\
"G"dG~G2 dGeG | dBGA "D"BAAB | "G"dG~G2 "Em"dedB | "Am"AcBA "D"GEDB |
"G"dG~G2 dGeG | dBGA "D"BAAc | "G"Bddg "Em"egdB | "Am"cABA | "D"GE D |]
f |\
"G"gfga bgaf | gfga bgef | "Em"gfga bgaf | "A7"gfed "D"^cdef |
"G"gfga bgaf | gfga bgeg | "Em"bgaf gedB | "Am"AcBA "D"GE D |]
d |\
"G"Bd~d2 Bdgd | Bdgd "D"BAAc | "G"Bddg "Em"egdB | "Am"AcBA "D"GEDd |
"G"Bd~d2 Bdgd | Bdgd "D"BAAB | "Em"eB~B2 gB~B2 | "Am"AcBA "D"GE D |]

%%sep 2 1 500
%%sep 1 1 500

